!!!!SEGMENT: pl-kc--40102-iii-1-saf--002-028_zielenski-mikolaj--communiones-totius-anni-fantasia.krn
!!!cenid: 16xx:1559
!!!COM: Zieleński, Mikołaj
!!!COM-rismID: pe30013481
!!!CDT: <1611->1611
!!!CNT: Polish
!!!GTL: Communiones totius anni
!!!OTL: Fantasia
!!!OMV: 028
!!!PDT: 1611
!!!AGN:
!!!SMS-siglum: PL-Kc
!!!SMS-shelfmark: 40102 III/1 Saf.
!!!SMS-shelfwork: 002-028 G
!!!SMS-variant:
!!!SMS-altvar:
!!!NIFC-rismSourceID: 990069887
!!!NIFC-rismChildID: 990069887
!!!NIFC-islandoraID: none
!!!URL-pdf-islandora:
!!!URL-scan: https://cyfrowe.mnk.pl/dlibra/publication/24235/edition/23926/content?ref=desc @EN{Scan on The National Museum in Krakow Website} @PL{Skany w portalu Biblioteka Cyfrowa Muzeum Narodowego w Krakowie}
!!!IIIF:
!!!ONB-nifc: UWAGA: str. 58. Numer w źródle: 32. Uwaga: W xml metrum 2/1 do źródłowego C| i odpowiednio 3/1 do 3/2
!!!AIN: 2 organ
!!!key:
**kern	**kern
*part2	*part1
*staff2	*staff1
*I"Organo	*I"Organo
*	*I'org
*Iorgan	*Iorgan
*ICklav	*ICklav
*clefF4	*clefC1
*k[b-]	*k[b-]
*g:	*g:
*M2/1	*M2/1
*met(C|)	*met(C|)
=1	=1
!	!LO:TX:b:t=Fantaſia.
!	!LO:TX:a:t=Doi Concerti con Fagoto,ou cro doi Violini con Viola groſſa.
1G	1dd
2G\	2dd\
2B-\	2dd\
=2-	=2-
2F\	2cc\
2G\	2b-\
2D/	2a\
[2D/	[<2ff\
=3	=3
2D/]	2ff\]
2A\	2ee\
2B-\	2dd\
2F\	2cc\
=4-	=4-
!	!LO:TX:b:t=Tres voccs cum Organo.
2r	2.b-\
2GG/	.
.	4b-\
2D/	4a\
.	4d/
[y2D/	4f/
.	4g/
=5	=5
!LO:N:xstem:cue	!
4D/]	4.a\
4D/	.
.	8a\
4C/	4cc\
4BB-/	4dd\
2AA/	2ee\
2DD/	2ff\
=6-	=6-
1GG	1ee
1DD	2dd\
.	[y2ff\
=7	=7
!	!LO:N:xstem:cue
2.BB-/	4ff\]
.	4ee\
.	2dd\
4BB-/	.
2F\	2cc\
2G\	2b-\
=8-	=8-
2D/	2a\
2.AA/	1cc
4AA/	.
2BB-/	2b-\
=9	=9
2FF/	2a\
2GG/	2g/
1.D	2f/
.	(<1a\
=10-	=10-
.	.
2D/	1dd
1A	.
.	[<2cc\
*custos:A	*custos:cc
!!linebreak:original
=11	=11
1G	2cc\]
.	1b-
1F	.
.	2a\
=12-	=12-
4.E\	4g/
.	8f/
8F\	8e/
2G\	4d/
.	4e/
2D/	4f/
.	4g/
[y2D/	4a\
.	4b-\
=13	=13
!LO:N:xstem:cue	!
4D/]	4a\
4D/	4d/
4C/	2dd\
4BB-/	.
1F	1cc
=14-	=14-
2.BB-/	2dd\
.	2.ff\
4C/	.
2.D/	.
.	4ee\
.	2dd\
4E\	.
=15	=15
1.F	2.cc\
.	4b-\
.	4a\
.	4b-\
2F\	4cc\
.	4dd\
=16-	=16-
1.C	4ee\
.	4cc\
.	4ee\
.	4ff\
.	4ee\
.	4ff\
2C/	4gg\
.	4aa\
=17	=17
2.E\	2.gg\
4F\	8ff\
.	8ee\
2G\	2dd\
2A\	2cc\
=18-	=18-
1G	1dd
2C/	2ee\
4F\	4cc\
4F\	4cc\
=19	=19
2.FF/	8cc\
.	8b-\
.	8a\
.	8b-\
.	4cc\
4F\	4cc\
2.BB-/	2dd\
.	4dd\
4B-\	4dd\
=20-	=20-
2.B-\	8.ff\
.	16ee\
.	8dd\
.	8ee\
.	4ff\
4BB-/	4ee\
2F\	2cc\
4F\	4cc\
4D/	4dd\
=21	=21
2G\	8b-\
.	8a\
.	8g\
.	8a\
4G\	4b-\
4GG/	4b-\
2D/	2a\
4D/	4a\
4BB-/	4b-\
=22-	=22-
2C/	8g/
.	8f/
.	8e/
.	8f/
4C/	4g/
4AA/	2cc\
2D/	.
.	8b-\
.	8a\
2GG/	2cc\
=23	=23
1D	1a
1GG	2g/
.	1cc\
=24-	=24-
1DD	.
.	2.ff\
1BB-	.
.	4ee\
.	2dd\
=25	=25
2F\	2cc\
2G\	2b-\
2D/	2a\
2.AA/	1cc\
=26-	=26-
.	.
4AA/	.
2BB-/	2b-\
2FF/	2a\
2GG/	2g/
=27	=27
1.D	2f/
.	1a
2D/	1dd\
=28-	=28-
1A	.
.	1cc
1G	.
.	[<2b-\
=29	=29
1F	2b-\]
.	2a\
4.E\	4g/
.	8f/
8F\	8e/
2G\	4d/
.	4e/
=30-	=30-
2D/	4f/
.	4g/
2.D/	4a\
.	4b-\
.	4a\
4D/	4d/
4C/	2dd\
4BB-/	.
*custos:F	*custos:cc
!!linebreak:original
=31	=31
1F	1cc
2.BB-/	2dd\
.	2.ff\
4C/	.
=32-	=32-
2.D/	.
.	4ee\
.	2dd\
4E\	.
[y1F	2.cc\
.	4b-\
=33	=33
!LO:N:vis=4:xstem:cue	!
2F\]	4a\
.	4b-\
2F\	4cc\
.	4dd\
1.C	4ee\
.	4cc\
.	4ee\
.	4ff\
=34-	=34-
.	4ee\
.	4ff\
2C/	4gg\
.	4aa\
2.E\	2.gg\
4F\	8ff\
.	8ee\
=35	=35
2G\	2dd\
2A\	2cc\
1G	1dd
=36-	=36-
2C/	2ee\
4F\	4cc\
4F\	4cc\
2.FF/	8cc\
.	8b-\
.	8a\
.	8b-\
.	4cc\
4F\	4cc\
=37	=37
2.BB-/	2dd\
.	4dd\
4B-\	4dd\
2.B-\	8ff\
.	8ee\
.	8dd\
.	8ee\
.	4ff\
4BB-/	4dd\
=38-	=38-
2F\	2cc\
4F\	4cc\
4D/	4dd\
2G\	8b-\
.	8a\
.	8g\
.	8a\
4G\	4b-\
4GG/	4b-\
=39	=39
2D/	2a\
4D/	4a\
4BB-/	4b-\
2C/	8g/
.	8f/
.	8e/
.	8f/
4C/	4g/
4AA/	2cc\
=40-	=40-
2D/	.
.	8b-\
.	8a\
2GG/	2b-\
1D	1a
=41	=41
1GG	2g/
.	2.dd\
2.G\	.
.	4cc\
.	4b-\
4F\	4a\
=42-	=42-
2.E-X\	2g/
.	2.gg\
4D/	.
1C	.
.	4ff\
.	4ee-X\
.	4dd\
=43	=43
1CC	2ee-X\
.	2ee-\
1GGl	1ddl
!LO:TX:b:t=Finis Tres vocum.    Incipiunt Quatuor voces.	!
==	==
*-	*-
!!!system-decoration: [s1,s2]
!!!RDF**kern: l = terminal long
!!!RDF**kern: > = above
!!!RDF**kern: < = below
!!!ENC: Katarzyna Serwa
!!!END: 2021-12-24
!!!ENC: Filip Voros
!!!END: 2021-12-20
!!!YEC: Copyright 2022 Narodowy Instytut Fryderyka Chopina (https://polishscores.org)
!!!YEM: License CC-BY-4.0 (https://creativecommons.org/licenses/by/4.0)
